X:30
T:Persistence of Noel Reid, The
C:Ed Yother
C:c.2005
C:http://edyother.com
M:6/8
R:jig
K:G
DFA DFA | cBc G2A | cBc GBc | ({c}d2)d2 dcA |
DFA DFA | cBc GBc | dcd Acd | age cBA :|
|: a2a age | ged e2 f | gfg def | gfg age |
a2a age | ged e2 f | gfg dfg | age cBA :|

